/* XPM */
static char *_afa66e02df0429595460e06bdf438c0[] = {
/* columns rows colors chars-per-pixel */
"128 128 76 1 ",
"  c #A5A5A5",
". c #A7A6A7",
"X c gray66",
"o c #A9A9A9",
"O c #AAAAAA",
"+ c gray67",
"@ c #ACACAC",
"# c gray68",
"$ c #B1B1B1",
"% c #B2B2B2",
"& c gray70",
"* c #B4B4B4",
"= c #B6B6B6",
"- c #B7B7B7",
"; c gray72",
": c #B9B9B9",
"> c gray73",
", c #BBBBBB",
"< c gray74",
"1 c gray",
"2 c gray75",
"3 c #C0C0C0",
"4 c #C1C1C1",
"5 c gray76",
"6 c gray77",
"7 c #C5C5C5",
"8 c #C6C6C6",
"9 c gray78",
"0 c #C8C8C8",
"q c gray79",
"w c #CBCBCB",
"e c gray80",
"r c #CDCDCD",
"t c #CECECE",
"y c gray81",
"u c #D0D0D0",
"i c #D2D2D2",
"p c LightGray",
"a c gray83",
"s c #D5D5D5",
"d c gray84",
"f c #D7D7D7",
"g c gray85",
"h c #DADADA",
"j c gray86",
"k c gainsboro",
"l c #DDDDDD",
"z c gray87",
"x c gray88",
"c c #E1E1E1",
"v c #E2E2E2",
"b c gray89",
"n c #E4E4E4",
"m c gray90",
"M c #E7E7E7",
"N c gray91",
"B c #E9E9E9",
"V c #EAEAEA",
"C c gray92",
"Z c #ECECEC",
"A c #EEEEEE",
"S c #EFEFEF",
"D c gray94",
"F c #F1F1F1",
"G c gray95",
"H c #F3F3F3",
"J c gray96",
"K c #F6F6F6",
"L c gray97",
"P c #F8F8F8",
"I c #F9F9F9",
"U c gray98",
"Y c #FCFBFC",
"T c #FDFDFD",
"R c #FEFEFE",
"E c white",
/* pixels */
"<3<36333<<<<%<<%:<<:<::<<<36<<::<<6:<<333333<<66::::<<<<<<336<<6<<<<<<<<<%<36-63:<6<<:63:<<:::::36<-<<<:<6:3<-:3<<<:%6q<<<<<<3:-",
"<<6633333<33666663366qrq366qr63:3r666666666666qq666666666666q66q6666r33r6<qqp663q<3363rq6rr666663qq6qqqq6r6q66-<66q633666q66663:",
":3VGVVVZVVZZVVVVGVZGVvGGVVZGZZGGMGVVVVVVVVVZZZVVVVVVVVVVVVVVZMMZZZZZGMVGMMGZGKfVGMVVMMZVVZZVVVVVZZVkZZZZVZMVVVKZZZZZZVVVVZZZZf33",
":<GKVVZZZZGGVKKVZGGZZfZPVZZGKKGZZZGVZZZZZZGGKGZZGGGGGGGGZZZZGVVGKKKKGGGGVGYGGVZGVZKZGZKGVGGZVVZVGKGZZZZZGKZGGPGZZZZZZPKvVVVVYf<:",
"::ZGZZGGVVVKVZGVVGGVZZZZZZZZZZGGZZGZMKGZVVGGVZGZMVZGGGZVZGGGGGZZGZZGZZGZZZGGGGZZVZZZZGGZGGGZZZGGGGGGZZZZKGZVvGGvVZZVVZZZZZZZKf::",
"-:ZGZZGGVVVKVVZZVZZVVZZZZZZZZZZZZZZZMKGGZVZMZGZMZGGGGZVZZZZZZZZZZZZZZGGGZZZZZZZZVZZZZGGZGGZZZZZZGGGZZZZZGGZZMGGMVZZVVZZZZZZZKf::",
":<ZGGZZZZVZGGVVGGZZGGGGGGGGZZZZZZZZGVGZGGVGVZGZMGGGZKVVGZZZZZZZZZZZZVVGKZZZZZZZZVZZZGGZZGZZZZZZZZZZZZZZZZZGGZGGVVZZVZZZZZZZZKf::",
":<VGGVZZZVZGGZZGKZZKGGGGVVVVZZZZZZZZVGZKGGPKMZZZGZVMPVMGZZGGGZZZZZZZkvZGZZZZGGGZZZZZGGZZZZZZGZZZZVZZZZZZVZGGGGGZZZZVVZZZZZZZKf::",
":3VGGVZZZVZGGGGGVKkGZZGGMGKZGGVKGZZZZGZGGGGGZZZZZGGGZZZGKZZKVZZGGGGGZGGZZVZkKZGVVZGGVGKGZGVGZVVZZZZZZZGZVZGVVGGGZZZZZZZZZZZZKf<:",
":3VGGMZZZZZGGGGGZKGZZZGGZZGGGYGGZZZZZZGGGGGGGGZGGGGGGZZZVVVVVVZZZVVVGZZGKGVkZVKGVZZGVZZVGGVGZVVZZZZZZZGZZZZVVGGGZZZZZZZZZZZZKf<:",
":3VGGVZZZZZZGGGGZGKZZZZGGGZZVKVvGGZZZZZZZZGGGGGGKVZKZZZZGMMGVVZZZZVVGZZGMGGGZVKGVZGGVZZMKVvPVZZZZZZZZZGGGZZGMZGZZZZZZZZZZZZZKf<:",
":3VGGVZZZZZZGGGGZVMZZZZZZKGMGKVvGGGGZZZZGGGGGGGGKVVKZZGGGGGGVVZGGGGGZGGZZPZZKZGVVZGGGKGVZGZZVGGVZZZZZZGGGVVGvZGVZZZZZZZZGZGZKf::",
":3VGGVZZZZZZZGGGGZVVZGGGVMGZZGVGZZGGVVVVZZZZZZZGZZGZZZGGMVGKZvGGZVVZVGGVZZZZGKZKVZGGGGZZZZGGVGGVPVPGZZZGKZVZVZGZZZZZZZZZGGGvPh:-",
":3VGGZZZZZZZZGGGKKGZZZGZVVZZVKZZGVZKVVVVZZZZZZZZZZGZZZGGVVGKVMGGVZZVZKKGZZZZGVvKVZGZGZZGZZGGVGZVVKVVZZZGPVMGVGGZZZZZZZZZGZKVKh:-",
":3VGGGGGZZZZGGGGKGGGZZZZGGZZGZMGZZZGZZZZZZZZZZZZZZGGGGZZZZZGVVGZVZZVZKKGZZZZMKZVVZGZZZGZZZZZVGGVMMGvZZZZZKGMVGGZZZZZZZZZZMGGGf::",
":3VGGGGGGZZZGGZGGZVVGZZZKPVZVGVZMGKVGGGGZZZZZZZZZZGGGGZVZZZZMVKVZVVZVZGVZZZZZPGGVZGZZGZZZZGGVGGVGvZZZZZZGGZVVGGZZZZZZZZZZvZKZf<<",
":6VGZZZZZZKVMZZGZZGGZGGVZVZGZZVGvkZVGKZGZZZZKZMKZKVZVGGVKGZKVVZGGVZVZGKMZKkkGZVVVZGGGGZZGKGZVGKMGZZGGZZGKGVVVGZVKZVVZZZZVGZZGf<:",
":6VGZZZZGGMGGVZVZZGZGGKGGGGGGGVGGMGvZGZGZZZZMGGGKPVZZVVZZGVGVVZGZZGVGGGMVPVVGGZVGZZZGGZZGZVZZMZGGZZGZZGZZZZGVVVVZGGVZZZZMGVZGf<:",
":3VGZZZZTKvMGVZVZZZZGZGGGGGZZZGZZKZMZZZZZZZZVZZGKKvvKGGKZGZGVVZGVVGVMVKKZVKGVGGVGVKVGGZZZVZGPVVZGZZGZGVGVZGGGGGGVZGZGZZZMGVZGf<:",
":3VGZZZZVZKVMZZGZZZZZVZGZGGZZpGKMGPGZVZVZZZZVGVVVKVGVVZGVKZZVVZGZMZGVVKKMGZZVGGVMKKVGGZZZGKGZZGZGZZGKMVKZZZZGZZGVVZKGZZGMGVZGf<:",
":3VGZZZZGGGGVZZGZGGVGVZGVGGZZZZZGGGGVZGGGGGVZZGKGZGGGGVZGGZVZMZZGVKZVMZGVZGZVVKVMKVVZGGZVMKVvKPGZGZVGZZZVZVGZGGZZZZZGZKGVVVGGf<:",
"-<ZGZZZZMVGKVZZGZGGVKZVVVGGZGGVVGGGGVGGZkGKVKZZGGZZZGGVZGGGZVZGVZKGZGGVGGZVZVZZGGZMKZGGZKGVGMVKVGGGZVVVZVGGZVZGZZZZZPGPGGVGGGf::",
"-<ZKZZZZMVGKGZZZZGZVZKZvZGGVGGVVZGGGZGGZZZGKGGZZGVZGVVGGZGGZMZZZGGVKVGZGGZVZZVZGZGZZGZZGGGVGVZVZZGGGZZGKGvfKVKVVZZZZGZKGVKhVGh::",
"-<ZGZZZZGGGGGZZVVZGZZVZGZGGVZZZZZGGGGGZVVVZKVGKZGVGGKZGMVGGGKGvVZGGGZZZvVZGZVZMKVVZVGZZGMZZZKVZGVZGZMVZGGMvZGZZvGZZZkkGGKKMZGh::",
":3ZVZZZZZZGZZZVVGVVZGZZGVGGVZGGZVZPZZZZZGGGVZVGKZvZMPMGVVZGZGKGVGVGVZGVVZGVKVVZKZVZKKZZGGVGZKGGVVVZZZGZGZGZZGZZZPVVPZZGGGKKZGf::",
":3ZVZZZZZZGGGGGGZZVvGGZGMVZVVGKKVVZZZZZZZZVVGGVGGKVVGGVGVVKZZZGVZZZZVGZVZZZGGZZGGZZZZZGKKGVGZZGGZGGGGVZGGGZZZZZZKZZKZZGGGGGZGf::",
":3ZVZZZZZZGGGGGGGGZMZGZZVVZVMVZGMGZMVZZZZGVVZGVKkVKGZGGGVVKZVVZZMVGGVGZZZZZGZGGZGGZVGGZVPVVGZVGGvMZGZVZZGGGZVVZGGZZGGZZZZZZVGf::",
":3ZVZZZZZZGZZZVVKGGGVGGZGGZMGZZGGKVZVVZZKGZGKKMZKKGVVGGGVZGZVVZZGVGMMGZGZGVKMZGGVGGZVZZZKVhZGZGGGGZZMGZMGGGGVMVZGZGGZZZZVZVVGf::",
":6GZZZZZGZVGZZGZZVGGMGKZGGGVGZGZZZZZZGGGGZZZKGZVGGZMMVMZVVZKZMKZVZVVZMVVGGVGKZGGZVGZKMVKVGGKMVZGZVVGvGGGZGVGVVVGGVGZZMGVKvZZZf:<",
":3ZZZZZZGVGZGZkVKGKKVVVVZZZVZZZZZZZZZGGGVGZZGGZZMVZVGMZGVVZGPvGZVGMZKVZZGGVZGZVKVVGGGKVVKZGKvVGGZGZVZGZVGZVGZVZGGVGZZVZVZGMGZp<<",
":3GZZZZZVKVZGZGkKVMGGGGGvGVKZGZGZZZZVZGGMMTGGGGZVZGGGGGZZVVGKVZGGMGZGVZZGZMZMGGZGZZVKGVZVZGMZGGVVZGZKZVZGVZZZZZKGVGZGKGKVKvGZr3:",
":3ZZZZZZVGKVGGZGZGVMvZGZGZGVZZZGZZZZVZGGGMGGZGGGVZZVGGMZGVVZVKVKKVZGvVGVZVMZMVGGGVZVGVGZGGVZVGKZGVVZVGKMVZKVGZGKGVGZMZvVVKVVGr6:",
":3ZZZZZZVYGGZGZZGhZZGVZGVZGZGVZZZGGZZGZMVZKZZZZGvZGZGZZGGVGVZVVZZGKGMGZPGVGZZZZZPZVGKMVMZVGGZZZZKZZZVKVZVGZGGGZKMKZGvZZVGGZGGf::",
":3ZZZZZZZZvGZGZZGZGGGZZZGGGGVGZVZGMGGVVGMKVGZZZZGGGGGZZGVZZGGMKKGVGvZGVZZZGVZZZZGZZKGZVVZZKGZZZZZZZKVGVZZKZVMZVGZVVKVGGGVKVpGf::",
":3ZGZZZZGVkKZGZZKKGZZGZZZKZhVKGVVKVZGZZGGVZZZZZZGZZKGZZGMZVKZVGvMVGZGKVVVZKVZZZZZZGKZVZKZVGGZZZZZZGKZZVZZKZVZVKZZMZGZZZKVZZZGf::",
":<ZGZZZZGGVPZGZZPZZVVKZZGZZZZZGVZVVZKKGVGGZMZZZZVVZGGZZGZZZZVGGZZTVGZGVGVGPMZZZZGGGZPVGZKMZPZZZZKZZZGVVGVGZGZZZvVVPZVMMGVZGGGf::",
":<ZGVGGVZGZZGVMGZZZZMKKGPZZKGVVKGGGZVZZVVKGZvZPZZMZKKZvYVVKGZGVGZZZGGGGGZGGGGGZZGVVKGVZMPVZVZZKZGGGGZMGGvVGZZGGZZGGZPVvGGZVZGf::",
":<VGVGGVZGZZKZVKZKVGhVKMGZPZGVVZZZGZVZZVVGVPVZKZKZvZGVvKZvKGZGVGZGGZGGGGZZGGGGZZZVZKZGVZKZZZZGZGGGGGZVZGVVGZGZZGZGGZKVMGGZVZGf::",
":3VGVGGVZGZZKZVKZKVGZGVZVZPZGZVZZGGZZGGZZZVKZZZZZKZMGGZKMKGVZGVGVGGVGGGGZZZZGZZZZZZGZGZGGZVGZGVGGGGGVZZGZVGZZGGZZGGZZZZGGZVZGf::",
":3VGVGGVZGZZGVMGZZZZVZGVMZGGVZZGGGZZZGGZGVGVGZVKMZKZZZGZZGGVZGVGVKKVGGGGZZZZGGZZVZGGPGGVZGVGGVGGZGGGMGZZKVZGGZZGZGGZVZGGGZVZGf::",
":3VGMVZGKGZvGVVKZvZZKZZMKZVVKGGGZZVVGGGZZZZZMZZKZZKGVVGVGZZGGKVVVZVGVVVVZVZKvZvvKZMMKZVGVGMKZZZGKVVKGZGVZZZZZPVZMPGVZZVZZKGZGf::",
":3VGZGGGZZGZGZVGZGGMZGKvGZVVGZVZGGGMGGGGZGGKVGVKVVZGVVGKGZZGVGGZVMGGZZZZZVZGKZMVGZZZKGVGGKVGZZGGZVVZPGGVZZZZKKVGZGVGZZVZVZVVZf-:",
":6VGGGZZVVKGZGZGGGVZGVZZGZVZGGVGGZGVVGGGGZVVGVGZGMGGGZVGZZZZZZGVGVZMGGGGVZGGZVGPZGGGGGVGZGvZZZZZVVVZMvVGZZZZGGGZZGVGZZVZGvZVZh-:",
":6VGGZVMZZGZZGZZVZVGGMZGGVZGZGvZZkZGVZZGZGGGGZGVGGMYMGZGVZZVGZGMZGVVGGGGVGGZVVKVVZZMGKZZZGVKZZZZZGGZVvVKZZZZMGGvMPGVZZVZGGvKGh-:",
":6GGZZZZZVVKZGVZGGGGKGVGZZGKMGGVVVVGGZZGVVZhKGGZKMVZVGKGVMMVKKGGZKVZKKZvZMGvGMGZKVZVGZZGGvMZKvKZGPPGVGGVZVKZZGZVGVKZKZVZGZVZGf<:",
":6GZZZZZGGVVGZVGGGGGVZZGZZGGVGKGZVVGGZZGZGZMGGZZGVZZVZGKVVKZKZZVKZVGZGGVGZMZGVVGZPVVGZZGKGKGGZGGZGGZVKGGVKPGGZGGGZGZGZVZGZVZZh-:",
"-3ZVZZZZZKZVGZVGGGGGGvGGVGGVVVZZGZZGGGGGZKVZVGZGGVGGZZGKZPVZZvZGGGGVVGGZGGMGGVVGZGGVGZZGGZGZVGGGZZZZhvYZZZGGZGYZZGZGVGZZGZVZGp3-",
"-<ZVZZZZMGGZGZVGZZGGGKVGGVVZZZGGKGZZKGGKVZVZZVZGZZKGKZVZZZVGGvGGKVGVZGGVGKGVGMGZGVZGGZZGGZGGvVGZGZZGZvZGMMGVGVGVVGVGMGGZGZZZGh::",
"-<ZGKZVGVKVGGGZGVPGGZGVGGZVGPGZMGGZMGKGVMZVZGVVGZVZKGZVZZZGGGVKZZZZZZZZZGGGGPZKVMKZVGGZKKVVGZZKVZGGGKGZZvGMZZGZGVGGVVGZZGMGVZh<3",
":3GKZVMVGKZGGGZGfZZGVZGKZZZGVGZMGGZVGVZGKKVVKPZVZVZKMGGZGGZZZZGZGGGGZZZZKZZKMMVZVZMZZVZZGZVGZZKVZZZGVVZGVPGKZGVGVZGVVGZZVKGVKk::",
"%:VZKGMhTVMGGGZGVGVGVVGGGVKVMZGVZGGVKVZMKVvVZGPZZVZKZVZKKGZVZGZGGGGGZZZZGVZKVkZZKGZKZVGVZZZGVKZZGZZZGZVZVGGZGGZGZVZZVGZZVKGVKk::",
":3GKVGKZZVVfGGZGKZvKGVGZVKZGGGZZVGGZZMGMMGGZGGVVZVZKGGZVKGVMZKVGKMMKZZZZZZZZPGMGGGZGZKGGVZGGGVPVZGGGGVVZGZZVGZKVGVVGVGZZGMGVZh<3",
":3ZZMMGZZZGVGGZGGZGGVGvvPMVGGGGGKGVVVGGMGZZGVGGGZGGVZZGGPGZVGZVGZZGGZZVVGGZZKVVGZZZZKZZPZKGGVZZGGGZZGGVVZGGvGGGZGVVGZGZZZZVZKf<<",
":3ZZGZVPZZGVGGZGZGKVKVZVVVvKZZPGVZGGVKGZGZZGVZKGVGGVZZGGKGZVZVGKZZGGGZZVZGZZKVZZZZZZZVMZGZGZZZZGVVGGZGGVVZGVGGZZGZVGZGZZZZVZKf<<",
":3ZZZVkGZZGVGGZGGVTVGGZGGZZKKvMKGGZVVVZVGZZGGZGMVGGVZZZGGGZZGGZVZZGGGGZZZGZZGZGZZZZZKGZZGMZGZZGGhMGPMfGZVVGZGGZGGZVGZGGZZZVZKf<<",
":3ZZKZGVZZGVGZZGGGZGZVKVZGvZGMfVGGZVZGZGVKKVGVKVVGGVZZZZZGGGVGGZZZGGGGGZZZZZGZGVZZZZKGZVkZGGZZGGVVVVVVZMZVZZGZZZGGZZZZGZZZVVKf::",
":3ZZZZZZGGKGVZKGGGZKVGZZGGGVZGGZGZVVKGGZPVZGVZZVVVKZVGGVGZKGZGGZGZZZVKZZGGVGMGGVZGVVGVGGVZGGZZGGZZZZGGGGMZKVGGGGGGVZZZGZZGZVGf::",
":3ZVZZZZVZKGZZGZVZGVZZVGZZGGVGGVVVVGGGGZKVZZVZVVZVGZGGGGGKZGZVVZZZVKZVMZVPVZVGGVVVGZZVGGZZGGZZZZZZZZZGGZVVGZZZZZGGVZZZGZZGZVGf::",
":3ZVZZZZVZGVGZGVZVGZGZVGGMPGGVVGGkZGZZZGGVZVKVPGZVGVGGGGGKZGZVVZGMKGGMVGVGZZGGZVKvZZZVZVGGGGZZZZZZZZZGGZGVGGVVVVGGZVZVGZZGZVGh::",
":3ZVZZZZGZVkGGGVVPKZVKZZKGVGGZZGZGVVVVZGZVZVKVGGVGKkGVVGGZKGZGGZKVGZGVGGGVZZGZVVMVKZkMGGKKGGZZZZZZZZVZZVKVGPZZZZGGZVZVGZZGZVGh::",
"<-vGZZZZMZGMGZGVVGGVZVGMGGZZGVGZZGPGZZVGGMGKZZPGZGGGZVZKGGGGGKZMGGMGZZGPGGVVKGGGMZGZVGZGZZGGVZVGGGZZVGKVZZZZVGGGGGZGGGZVMZGVGp::",
"-3GKZZZGGZGGGZGZZGGZGGZMPMGGZGKZVGVGVZVPKGVGGGGVGGZZZZZGGGGGZGGZGGVZZZGPZGVZGZGGVZZVVGZGVGZKVGZZZGGKVGKMVVGGVZGGGZZGKKVMGvKZGp::",
"<<ZKZZZGGZGGGVZGGZZGVGGGGVKZZZZKMGMGGMGZKZGZGKZMVZZZVZGGGGGGZGGZGZGVGZGKVGVGZZZGVZZVZGVZGVGZVZvvZZGGZZGVVVGGZZZVGZZGGGZVvKGVGp::",
":6VhZZZZMZGMKVZGGVVGVKGGGVZKMGGKZZVKZVGGVKZKZGVVvMZKMGGZZGGGGKZMGZGVKGZGVZZGZZZGZGZMGGVZKGVVVZVKZVVMKMVGZZZZVZZMGZZGVZGKZMGVGp::",
":6GGVZPMVZZKGVZGMZGPZMVKGZVKVGGVGGVGZKGVGGGGGGGGPZZVYVZGVVGVKGVVKZVZGGKVVVVVGGZVZGVZGZGVZZGGGVVGGZVMZZGGGZGGMZGGVZGVKVZZZGGVKp::",
"-3GGMGPMVZZGGVZGVVZZPVVKGZGZVGGVVVZVGZGVGGGGGGGZGVGKKGKVMVGZZZZZGGZZGZGZZZZZGGZMZGVZGVGVZZGGGVVGKGGZZGZZGZKGVGGZKZGGPZGGZGGVKp::",
"-<ZZZZVGZGVZGVZGZZVVPZVGZGZGVGGVGZGGGZMPZGGGGGZVKVGZGGKVZMZZZZZZZGGGGVGGZZGGGGZVZGVZZVGZZZGGGVVGPKZVGZZZGZKGZGGVKZGGZGKVZGGVKp::",
"%<VVVGVZGGVZGVZGZZGGVZZZGKvKVGGVVGZZVZGGZGGGGZVMZVGPKGKZPVVMKGVVVGGGGVGKGGGGVGGGZGVZVVGGZZGGGVVGMVZGGZZZGZGZGGZMVZGVGkvVZGGVKp::",
":<VGGVVGZGVZZVMGZGGZvGGKVMGZPVMVKKGGGVMZPZVZGGZZGVVGZVKGGGGGZGGGGGGGVGGGZZZGGVZKVVMGGZGZVGGVZZGGrVGVGGZVGGVZVVGPZZZZPGGvvZKGKp<<",
":<ZGZVVZZVZZGGZGZGGZZZKGKvPMVVZVGGZVGVMVGKZvZVVVVGGVZVGGKGZVZZGGGGGGVGGGGVVGZMVGZZMZMZVGVGGVZZGGZGZVGGZVVGZGVZGGZZZZZZGZMVGZKp<<",
":<ZGVZZZZVZZZKGGZGGZGVZZGZGVVGKGZZVVKGGGZGZvVVVZVGGVGZGZKGZVZZZZGGGGMPVGGVVGZVVVKGMZKZGVVGGVZZGGZZGKGZZVVGZGVGGZZGZZZZVPZVZZKp<<",
":<ZGVGGVVGVGMGZVZGGZVVMZZZGGZGGGGGZVGGZZKVZKVZGGGVVGKZGVGGGGZZZZGGGGVZGZZZZZGGZVPKVZVZVZVGGVZZGGVZZVGZZVGGVZVKKVZGZZGGvKKVVZKp<:",
":qZZZGGZGGGKGGGGGVZZVZZVVZZGPGKGZZZVGGGVZZGZVGKZKVZZZKGYZZZZZZGGGGGGGKVKVVVGGKZVZVKGKVZPGZZKVMGZZZZGGGZZGGZMGGGGVZKVGGZZZZGGZk<:",
":<GVZZGZZGVZGVGZZZGPZGGZZVZZVGZGZZZZGGMZVZGVKZVKZMGGVGVGZZZZZZGGGGGGGPVKVZVGGVZZZVKGZGZZZVGPVVZZZZZGGGZZZGZVGGGGGVVZGGZZZVGGZk<:",
"::ZMZZZZMGZVVVZVMVVKZGGZGVGVVZVGZZZZGGVZZZZZZVZGZMGGVZMVZZZZZZGGGGGGGVKVVGGGGKkVGZGZVPVMPGVZGVMZZZZZGGGZVGGVGGGGZZMGGGZZGVZKGh:<",
"%3MMZZZZVPKZMKkZZGVKVZZVGVGVGZGVZZZZGGGVGZVGMfGGKVZZGGVVZZZGZZGGGGGGMMGvVKGGVGMMKZGVZKvMKZZGKZvGZZZZGGZZMGGZZGGGMKVVGGZZGMVPKf:<",
"<6VMZZZZZZGVPGVZVZKGVGZZGGGGZGGZMGGVGVZGZZGGGGGGGVZGGGGZVGGVGZVVKZZKGVGZZZGGGVZKZZVKMVGKKkZZGZZVVKvKVZZVZGGZGVZKZGZZGPVVGPGZKf:<",
"-3ZZKGZMZZGZKGvMKVZZZZVGZVvGZGGZVZZVGZZGZZGGZZZZGVZGGGGGGKGGGGGGZGGZVZVGGGZZZPvVKGVGGVVGZKGZGZZVGZVGVZZVZGGZGZZZZGZZMGPVZVMZKf<<",
"-3ZZGKGvZZGZGGkVTZVvZZVGZGZZGZZGZZZVZGZZZGGGZZZZGVZGGGGGGGGKZGGGVGGVPPZZZZVVVGZVKGVGGVVGGGVKGZZVGVZGZGZMZGGZGGZVZZZZZvVGZVMZGh3:",
"<6VMVKKVVZGZVKMTZZGZVGZZKMGGGZZGGZZZZGZVZZVVZZZZGVZGGGGGGVVGVVZGZZZZPGGZVVZZKKZVZZZKMVGKZVMGGZZVGZVGGGVvZGGZVGGZZZZZZZkMGPGZGh6:",
"<6VfZPGGVZGZMZVMZZZZGZZKVVVVZKZKVVZZGGGGGGVZGZGZGGKZZZZZGGGGGGGGZGZZZZGGGVKMZGGVGVZGVKZVGGKGZMKMGZZGGZZZVGZGZVVKGZZGVGZZZGVZGh3:",
"-3ZMMZvvVZGZVZVVZZGZKZZGZZZZVGZGVZZGVMGGZZGVGZGZZGGZGGGGGGGGGGGGZGZZVGKZKMGVGZGVZZVGZKZVGGVKZGGZMZZZGZZZGVZGZZZGGZZGVGZZZGZGGf3:",
":3ZZVKVGVVZGZGZVGGGGKZZGGGGGhkVGZZGGZVPKGVZGGZGZZVKVZZZZGGZZGZGGGGZGVGKZGVZVGVZZZZGZZGVVGZVKZKGZZZZMKGVMKVZGZVKZGVGGVGZZVGZGGf3:",
"63ZZZGZPVZZGZKZZGGGGGZZKGGGGGVGVZGGKZZZZVGZGGZGZMKMZGGGGGGZZZZGGGGZZZZGGZZGVKVZZZVPVGGVZZVGZVZGVGZZGZZZGGGVZVGZGGVGGVGZZMZZKGf<:",
":3ZZGGGGGZZZGGZZKVGGMGGGGGZZVZGGVZGGGZGZZZZZGZKKZZZZGZGZZKKZGZZGZGGZZVVGGVGZKKZvZGvVVPGZZZZZZZZZZZZZVZKKGZZGGZZVZGZZZvGZGZZZGf<:",
":6ZZZGGGGZZZGGZZGVGGZZGVGGZZGGZVGVGVGGZMGGGGGGGGZZZZPGGVZGGZGZZGZGGZZVVGZGGGGGZVVGVGZVGkZZGGZZZZMGGVZGKVGZZGGZZVZGZZVvGGGZZZGp<:",
"-qVGZGGGZZZZGGGGGVZGVMKKGGZZGGZVKVZZGZKZZKKZvGKKZZZZZZGZZZZZGZZGZGGZGZGvMPZKZGGZVZGGGGZVGGGGGGZZGKZvPZVZVZZVGZZVZGZZZVZGGZZZGp::",
"-rMZZZGZZZZZGGGGGVZGGvGGGGZZVZGGZZMPZVhVVGGVvGGGZZZZZVVMZVVZGZZGZZGZGvGGZVPVVZGGGZGGZZZGGGGGGGZZGGVVGKVGVZZVGZZVZGZZKGMMGZZZGp<:",
"-rZZZZZZGGGGGGGGKVKGZZZZZGGZZZGGvVZZGKGVZPGGGVKZGZKGZVGVVGZGVGVZZVKGGVZGZZZZKGZGMZKGPMZZGGZZGVvGVGZVGKVVGMGZGGZZGGGGZGMZGGVGGf<:",
"-qVZZZZZGZGGGGGGVGGZGGGGZZZZVZGKZVVZGZKZZZKZZZZGGZKGGZZVVZGZMGVVGMGGGGZGZZZZKZZZVGVVGZGVGGZZMVGVVGVZZKVVVVGMZZGGGGGGZGMZGGVGGf<:",
":6VGGZZZZZZZGGGZZMPVGKGGZZZZGKVVKZVZZGZKZMKGVVZGGZKGZZVZVZGZVGVZKMGZGZGKZZZZGZVGGZGGZGGVGGZZVVGZZZVGZGZZVGKVZZGGGGGGZGMZGGVGKp:<",
":6MGGZGZZZZZZZZZZMVZZZZZZZZZZKMGZGGZGVGKVvGGMvGZGZKGMZZKVGZGKGVPKVGVVGKGZZZZMGMPVVVKGGZVGGZZGKGZZZVGVGZZVGZVGGZZGGZGZGMZGZVGPr:<",
"<6GGGGGGZZZZZZZZGVVGZVZKMZZPGGGGGGVZKZZZGZZKGKZZGPGZVVZZVVGVZZZZKVVKVGVZVVZGMGKVVZZGGGVZGZGZVKGKZZGZGPZVGZVGGZVVZZZGVKVVGZVvGf3:",
":6ZGGGGGGGZZZZZZGVVGZZZGVZZKGGGGGGZZGKGGMZKGVGGPGKGGGGZZZZGVVZGKGGVGKZhGZVVGZGKGVZZGZGVZKKKMGGVGKGZVZGZZGZMVGZZVZZZZZGMZGVVVGf<:",
":3VZGGZZGGGGZZZZGVVGZGZVZGVGGGGGZZGGvGZKfMGGGGZGGGZGGGZZGGGVVZGKZZVGZMZGGVVZGZGKVZZGVGZZMVGMGZvVKGZVZZVGVGvGGVKZZZVZZGMZGVVGGf<:",
"-3VZZGGZGGZGZZZZGVVGGGGMZGVZGGGGZVGGGKVKZGGVGGZGKGVGVVZZZGKGZZZZKvVZGZVZGZVVGMVKVZZGMGGZGZZVZGvkZZZZGZMVZVGKGVPGZZZZVKVVKVZYZf<:",
"-3VZZKGVVZZGGGGZGZVPVPGZZGGZKZMGZVVZGGVGGGGGGKVZZZVVGZGZfVKMVGVVGVZZZZZZGKVVZVZZGGZVZGVZGGZVGGZVGVVGGZZZZZGGGVGZZZZZGKGGGZZKZf<:",
":3VZZGGZGGGZVKKVGVGKGVMGGZZZGGVGGZZGGGVKZZZZVGZGGGZZVKGZvGGGMZGPGVZZVZZZVGZGGZZMGGZZZGVZGGZVGZZZZZZGGGZZZZGGGVGZZZZVGGZZZZZGZf<<",
":3VZGGZGZMKZKVVKGMZKGZZVGGVZZKZVZGGZZZZKZZZZVKVKGGZZMKGGZGGKGVZKZZVGMVZZVGGGGGGMZZGGZGVZGGZZZZZZZZZZGGZZZZZGZVGZZGGVGVVGZGZVZf::",
":3VZGZZGkfKZGZZGVKGGPZGVGGZVVPGVVZZVVZZPGGGGGVGVZZVVVVKKGVGKGvVGZZVGvMVZVGGGVZKVVZGGZGVZGGZZVZGGVZGVGGZVZZZGZVZVZGGVGMvZGZZZZf::",
":3ZZGGZGZZZZVZGGkVGZKGZZKVZGZvPGZZGGVZZVZVZKKVGPGZZVVVGZZGvGKMVVZZKVGZVZZMGGZZZZVZGGGVZZVGGVVZGKVZGGGGZVGGGGZZZZZGZZGZZGZZZZGh::",
":3ZZGGGZZZZZZZGGPKGZZVVVKVGGZVGKVZZGZGGZVGGZGVGPKGZKZGGVZKZGGVZGZGGZGGZZGMVKZZZZVZZGGVZZVGGVZGGGVVZGGGZZVZZZZZZZZZZZZZZZZZZZGh::",
":3ZZGGGZZZZZVZGGVKKVZVVZZZvMGGVKVGVGVGGGZGGVKZZVGGVPGKGZKZVKZZZGGGZGVVVMZGZVZZZZVZGGGVZZVGGVGGGZVVGGZZGGZVZZZZZZZZZZZZZZZGZZGh<:",
":3ZZGGGZZZZZVZGGGGGZGVVGZGVVKVZPVGVGvVGGKZVZGZGVVGVKGGVTZVZZMZVZGGVGVZZMGGVZZZZZVZZGGVZZVGGVKGGVVVGGVZGGGGGGGZZZZZZZZZZZZZZZGh<<",
":qVZGGZZVGVZZZZZKGVPhVGVGVVZGZVPGvZZVGPZKGZGKMVZVVGVZGGZGGZZZZZZGKGGKMGKVMVGGGGZZZZZMZGZMZGGGGGGVGGZZGVGVVZGGZZZZZZZZZZZZZZZGh::",
":<GGZGZZGGKGZZZZGZVGVZMKGZZGVKVKVVKGVZKZVGGGZZZVGZKGGZZGGGVZZZZZGGkZKVZZVVZGGZZhGGGGVZGZZVZGGGGGVGGVGZMKVVZGGZZZZZZZZZZZZZZZGh::",
":<GGGGGZGKGGZZZZGVZZZKZGVVVVZGZKZGGVZZGGVZGZZKGVMZKZGZZGKKVVZZZZVVfVGVVVVZGGZVVvGGGGGZVZGZVZZZZZVGGVZGVGVVZGGGZZGZGGZZZZZZZZGh<<",
":qVZZGGZVPkGZZZZZVGVPGZGZGGVGVGKZGGKZVGGGVVZGKZGKVGTZGGZZGZGZZZZZGZGMVVZVGGGZGVTZZZZKVVZGGZVVVVVVGGVMPGVVVZGGZZZGGGGZGZZZZZZGh<:",
":<VKZGZZZZZZZZGGGGGGZZZZGGGGGGZKZZGVGkGKVZGGZGGGGVZKZGPGGGGGZGMGKVVGGGZVZGZZZZZZKZVZGGGGVZZVZGGZPGVVZZZZGKVGZGGGZZGGGGVVZGGGMh<:",
":<VKZGZZZZZZZZGGGGGGZZZZZZZZZGGGGZGMVVGKZZGGGGGZGGZZPKVZPGZGZVZZKVVZVKVVZZZZGGGGPZVVGGGGVZZVVGGVKGZVZZZZMGVVGGGGZZGGGZZZZGGGVf::",
":<VGZGZZZZZZZZGGVGGZZZGZZZZZGGGZGZGMVVKGZZGGGKGVGKZZZZVGGGGGZVGVGVGVZGGGGVKVZKKZKZVVGGGGVGGVGVVKGGZZZZZZZVvGZZGZZZGZZZZZGGGGGf-:",
":3VGZGZZZZZZZGGGVGGVGZGZZZZZGZGGZZGVVZZKZZGGGKGVVPZGVZGVMGPGVZGVGVGVVhVZZGVZVGGVZVZKZGGGVGGVGZZGZZZZZZZZZKZGZZZZZZZZZZGGGGGGKf%:",
":3ZGZZZZZZZZZGGGGZGZGZGZZZZZZGKKGZGZVVZZZZGGGGGGGZZGGGZVVZGGVGGVZVZVGGZZZGGGZZZZZZGGGZZZVGGVZZGGVGMZZZZZZZZZGGZZZZGGZZGGGGGZGf3:",
":3ZGZZZZZZZZGGGGZZGGGZGZZZGZZZZZZZZGGGGKZZGGGGGGGGZGGZZVVZGGVGGVZZZZGGZZZZGZZZZZZZGGZZZZVGGVZZZZVPGZZZZZZZZZGGZZZZGGGGZGKGGZGh3:",
":3ZGGGZZZZGGGGGGZGGGGZGZZZZZZZZVZZZZGVZPZGGGZZZZGGGGGGZZZZGKZGGZZZZZKGZZZZZZZZZZZZGGZZZZZGGVZGGZGGKZGGZZZZZZGGGZZZGGZZZGKGGZGh3:",
":3ZZGZZGZZGGGGGGZGGGGZKZZZZZPKGZZGGGZvMKGGGZZZZZGGGGGGZZZZGGZGGZZZZZGGZZZZZZZZZZZZGGZGZGZGGVZGGZGkVGGGGGZZZZGZGZZZGGZZZZGGGZGf<:",
":3ZZGZZGGGZGZGGZZGZGGGVKVVVVKGZZZGGGGGGGGGGGZZGGZZGGGGGZZGGGPGZGZZZZGGGZZZZZZZZZZZZZGGMGZGGVZGGZGGGGGGGGGGZZZVGGZZZZZZZGGGZZGf<:",
":3ZZGZZGGZGGZGZZZGVGZGVGGGGGGGZVZZZZGGGGGGGGZZZGZZZGGGGZZGGGGZVVZZZZZZGZGGZZZZZZZZZZGZVGZGGVVGGZZGGGGGZGGGZZKZGVVZZZZZGGGZZZGf::",
":3ZZZGGZZZZZGGZZZGVGVKZZGGGGGZVVZZZZGZGGGGGGZZGGZZGGGGGGGGGGZGZMGGZZZZGGGGGGZZZZZGZZGVZGZGGVVGGZGGGGZZZZGGZZKZGVVZZZGGGGGGGGKf::",
":3ZZZGGZZZZZZZZZVGVZVKZZZZZZZZVVVZZZGZGGGZZZZZGGGZGGGGGGGGGGGPKVGGZZZZGGGGGGZZZZGGZZGMGZGGZVZGGZZGGGGZZZGGZZZVKGZZZZGGGGGGGGGf::",
":3ZZZGGZGGGZZZZGGGZZVZZZGKZGZZZZZZGGGGGZZZZZZZGGGGGGGGGGZZZZZVZPGGGGGGGGZGGGZZZZGGGGGZGGGVZGZGGZZZZGGGZZGGZZZZZZZZZZZZGGZGGGGf::",
":3ZZZZGGGGZZZZZGGGZZZZZZGKZGGGGZZZGGGGGZZZZZZZGGGGGGGGGGZZZZKKZvGGGGGGGGGZZZGZZZGGGGZZZGGZZZGZZZZZZGGGZVGGZVhGYGGGZZGGGGGGGGGf::",
":3ZZZZZZZZZZZZZGGGZZZZZZZKZGGGGZZZGGGGGZGZZZZZZZGGGGGGGGGGGGVGGZZZGGGGGGGGZZGGZZZZZZZZZZZGGZZZZZZZZGGGZVGGZVGZVZGGGGGGGGZZGGGf::",
":3ZZZZZZZZZZZZZGGGZZZZZZZKZGGGGZZZGGGGGZGZZZZZZZZGGGGGGGGGGGGVZKZZGGZGGGGGGZZZZZZGGGZZZZVGGVZZGGGGGGGGZVKGZZYZMZKKKGGGGGGZGGGf::",
":qZGGGGGGGGGGGZZZZVVGGGGGZMvGGGGGGGGGGGGGZZZZZZZZZZGZZZZGGGGGGGGGGGGGGGGGGGGVVVVVVVVGGGGGZZZZZZZZGGGKZGKVVVVVZZZZGGGGZZZKZMvGr3<",
"3qVGGGGGGGGGGZGGGGGGZZGGTPKGGGGGGGGGZZGGGGZZGGGGZZGGGGGGGKKGGGGGGGGGGGGGGGZZGGGGGGGGGGGGGGGGGGGGGGGGZKKZGGGGGGGGKKKGGZZGKGZVTf33",
"6<rffffpfppppppfffffppppffppppppppppppppfpfffffffffffffffffffpppppppppppppppfffffffffpfffffffffffppprffpffffffffhffffppfffffh6:6",
"3@@+++++++++++.+++++++++++@@++++++++.+++++@@@@@@@@@@@@@@....++++++++++++++++++++++++++++....++++++++@..@+++++++++++++@@@++++++%:"
};
